X:1
T:Alleluja collection
T:h. A. Solims
T:Tempus Paschale-Easter Time-Pasqua-Lieldienu laiks
T:Copyright © 
T:Copyright © 
T:Copyright © 
T:Copyright © 
C:h. A. Solims
Z:Copyright ©
%%score [ ( 1 2 ) ( 3 4 ) ]
L:1/8
Q:1/4=120
M:4/4
K:F
V:1 treble nm=" " snm=" "
V:2 treble 
V:3 bass nm="P2"
V:4 bass 
V:1
"^I""^Allegro" A3 A c2 A2 | A3 A d2 B2 | z8 | (d3 c"^-" B2) A2 | G4 !fermata!A4 |] %5
w: Al- le- lu- ja,|al- le- lu- ja,||al- * * le-|lu- ja.|
"^Versus" F16 A2 G2 G4 F4 | G16 B2 A2 G4 F4 ||[K:G][M:4/4]"^II""^Larghetto" G2 (FA) (GE) D2 | %8
w: ||Al- le- * lu- * ja,|
 (EG) (FA) G2 !fermata!G2 |]"^Versus" B16 A2 G4 G4 | c16 A2 (G4 F4) G4 || %11
w: al- * le- * lu- ja.|||
[K:C][M:3/4]"^III""^Moderato"[Q:1/4=100] DD (DE) F2 | EE (EF) G2 | AA A2 B2 | cc B2 !fermata!c2 |] %15
w: Al- le- lu- * ja,|al- le- lu- * ja,|al- le- lu- ja,|al- le- lu- ja.|
"^Versus" E16 F2 G4 | A16 B2 c2 G2 (G2 F2) E4 ||[K:Bb][M:3/4]"^IV""^Andante"[Q:1/4=80] FF B3 D | %18
w: ||Al- le- lu- ja,|
 FF (FE) C2 | cB AG FE | (DF) !fermata!B4 |]"^Versus" D16 C2 D2 (F2 E2) C4 | %22
w: al- le- lu- * ja,|al- le- lu- ja, al- le-|lu- * ja.||
 F16 A2 c2 (d2 c2) B4 ||[M:4/4]"^Moderato"[Q:1/4=100] B2 B2 B2 (AB) | c2 (BA) G2 !fermata!F2 |] %25
w: |Al- le- lu- ja, _|al- le- * lu- ja.|
"^Versus" D16 _E2 F4 | E16 F2 G4 F4 ||[K:G][M:3/4]"^Andante"[Q:1/4=80] DB B3 B | AB (dc) A2 | %29
w: ||Al- le- lu- ja,|al- le- lu- * ja,|
 cB A=G FA | (BA) !fermata!G4 |]"^Versus" D16 B2 A2 B2 c2 A4 | A16 F2 A2 (B2 A2) G4 || %33
w: al- le- lu- ja, al- le-|lu- * ja.|||
[K:C][M:3/4]"^Andante"[Q:1/4=80] cG G2 G2 | cA A2 A2 | GG A2 GF | E2 D2 !fermata!C2 |] %37
w: Al- le- lu- ja,|al- le- lu- ja,|al- le- lu- ja, al-|le- lu- ja.|
"^Versus" C16 D2 E4 C4 | G16 F2 F4 E4 || %39
w: ||
V:2
 F3 F G2 F2 | ^F3 F A2 G2 | x8 | E6 F2 | (F2 E2) F4 |] x28 | x28 || %7
[K:G][M:4/4] (DE) (DF) (E^C) B,2 | (B,^C) D2 D2 D2 |] x26 | x30 ||[K:C][M:3/4] B,B, (B,C) B,2 | %12
 CC (CB,) C2 | FG F2 F2 | E^F (G=F) E2 |] x22 | x30 ||[K:Bb][M:3/4] DE (FE D)B, | DD (DC) C2 | %19
 EG FE DC | (DE) D4 |] x28 | x28 ||[M:4/4] D2 F2 G2 (FG) | A2 (GF) =E2 C2 |] x22 | x26 || %27
[K:G][M:3/4] DG G2 ^G2 | A^G (BA) A2 | AG FE DF | F2 D4 |] x28 | x28 ||[K:C][M:3/4] EE (DF) E2 | %34
 FF F2 F2 | EE F2 ED | (DC) (CB,) G,2 |] x26 | x26 || %39
V:3
 C2 C2 C2 C2 | D2 D2 D2 D2 | C3 C C2 C2 | (B,3 A, G,2) (A,B,) | C4 C4 |] z28 | z28 || %7
[K:G][M:4/4] B,2 (A,C) (B,G,) (F,A,) | (G,A,) (A,C) (CB,/A,/) B,2 |] z26 | z30 || %11
[K:C][M:3/4] G,G, G,2 G,2 | G,G, G,2 G,2 | C^C D2 D2 | CD D2 [G,C]2 |] z22 | z30 || %17
[K:Bb][M:3/4] B,A, B,3 F, | G,G, G,2 E,2 | G,C CB, A, (G,/A,/) | (B,A,) B,4 |] z28 | z28 || %23
[M:4/4]"^V" F,2 B,2 D2 C2 | C2 (B,C) (CB,) A,2 |] z22 | z26 ||[K:G][M:3/4]"^VI" DD D3 D | %28
 CB, A,2 (C_E) | DD CB, A,C | (DC) B,4 |] z28 | z28 ||[K:C][M:3/4]"^VII" G,C (B,D) C2 | %34
 A,C (DC) B,2 | C_B, A,2 A,A, | (G,A,) (G,F,) E,2 |] z26 | z26 || %39
V:4
 F,3 F, E,2 F,2 | D,3 D, ^F,2 G,2 | z8 | C,6 C,2 | C,4 !fermata![F,,F,]4 |] x28 | x28 || %7
[K:G][M:4/4] (G,E,) (D,^D,) (E,A,,) B,,2 | E,2 (D,F,) G,2 !fermata!G,2 |] x26 | x30 || %11
[K:C][M:3/4] G,G, (F,E,) D,2 | C,C, (C,D,) E,2 | F,E, D,2 G,2 | A,A, G,2 !fermata!C,2 |] x22 | %16
 x30 ||[K:Bb][M:3/4] B,,C, (D,C, B,,)B,, | =B,,B,, C,2 C,2 | C,=E, F,F, F,F, | %20
 (F,C,) !fermata!B,,4 |] x28 | x28 ||[M:4/4] B,,2 D,2 G,2 (A,G,) | F,2 (G,A,) C,2 !fermata!F,2 |] %25
 x22 | x26 ||[K:G][M:3/4] D,G, G,2 =F,2 | E,E, A,,2 (A,G,) | F,G, D,E, F,E, | D,2 !fermata!G,4 |] %31
 x28 | x28 ||[K:C][M:3/4] C,C, G,2 C,2 | F,F, D,2 D,2 | C,C, ^C,2 D,F, | G,2 G,,2 !fermata!C,2 |] %37
 x26 | x26 || %39

